src/raw/bag/icon_24.svg

<svg width="24" height="24" viewBox="0 0 24 24" fill="none" xmlns="http://www.w3.org/2000/svg">
<path d="M21.0647 12.6502C20.9391 12.0442 20.5964 11.4985 20.0953 11.1063C19.5941 10.7141 18.9655 10.4998 18.3169 10.5H5.68309C5.03445 10.4998 4.40588 10.7141 3.90473 11.1063C3.40357 11.4985 3.06092 12.0442 2.9353 12.6502L1.55301 19.3169C1.4729 19.7034 1.4837 20.102 1.58464 20.4841C1.68559 20.8661 1.87416 21.2221 2.13681 21.5265C2.39946 21.8308 2.72966 22.076 3.10367 22.2443C3.47767 22.4127 3.88619 22.5 4.29986 22.5H19.7001C20.1138 22.5 20.5223 22.4127 20.8963 22.2443C21.2703 22.076 21.6005 21.8308 21.8632 21.5265C22.1258 21.2221 22.3144 20.8661 22.4154 20.4841C22.5163 20.102 22.5271 19.7034 22.447 19.3169L21.0647 12.6502Z" stroke="#71717A" stroke-width="1.5" stroke-linecap="round" stroke-linejoin="round"/>
<path d="M16.5 22.5V5.25C16.5 4.25544 16.0259 3.30161 15.182 2.59835C14.3381 1.89509 13.1935 1.5 12 1.5C10.8065 1.5 9.66193 1.89509 8.81802 2.59835C7.97411 3.30161 7.5 4.25544 7.5 5.25V22.5" stroke="#71717A" stroke-width="1.5" stroke-linecap="round" stroke-linejoin="round"/>
</svg>

<svg xmlns="http://www.w3.org/2000/svg" width="24" height="24" fill="none" viewBox="0 0 24 24">
  <path stroke="#3F3F46" stroke-linecap="round" stroke-linejoin="round" stroke-width="1.5"
    d="M21.065 12.65a2.647 2.647 0 0 0-.97-1.544 2.887 2.887 0 0 0-1.778-.606H5.683c-.649 0-1.277.214-1.778.606a2.647 2.647 0 0 0-.97 1.544l-1.382 6.667c-.08.386-.07.785.032 1.167.1.382.29.738.552 1.042.262.305.593.55.967.718.374.169.782.256 1.196.256h15.4c.414 0 .822-.087 1.196-.256.374-.168.704-.413.967-.718.263-.304.451-.66.552-1.042.101-.382.112-.78.032-1.167l-1.382-6.667Z" />
  <path stroke="#3F3F46" stroke-linecap="round" stroke-linejoin="round" stroke-width="1.5"
    d="M16.5 22.5V5.25c0-.995-.474-1.948-1.318-2.652C14.338 1.895 13.193 1.5 12 1.5c-1.194 0-2.338.395-3.182 1.098C7.974 3.302 7.5 4.255 7.5 5.25V22.5" />
</svg>
